SVG_Azure_All/Host Group.svg

<?xml version="1.0" encoding="UTF-8" standalone="no"?>
<!-- Generated by Microsoft Visio, SVG Export Host Group.svg Page-1 -->

<svg
   xmlns:dc="http://purl.org/dc/elements/1.1/"
   xmlns:cc="http://creativecommons.org/ns#"
   xmlns:rdf="http://www.w3.org/1999/02/22-rdf-syntax-ns#"
   xmlns:svg="http://www.w3.org/2000/svg"
   xmlns="http://www.w3.org/2000/svg"
   xmlns:xlink="http://www.w3.org/1999/xlink"
   xmlns:sodipodi="http://sodipodi.sourceforge.net/DTD/sodipodi-0.dtd"
   xmlns:inkscape="http://www.inkscape.org/namespaces/inkscape"
   width="0.78742665in"
   height="0.78735483in"
   viewBox="0 0 56.694717 56.689688"
   xml:space="preserve"
   class="st6"
   version="1.1"
   id="svg80"
   sodipodi:docname="Host Group.svg"
   style="font-size:12px;overflow:visible;color-interpolation-filters:sRGB;fill:none;fill-rule:evenodd;stroke-linecap:square;stroke-miterlimit:3"
   inkscape:version="0.92.5 (2060ec1f9f, 2020-04-08)"><metadata
   id="metadata84"><rdf:RDF><cc:Work
       rdf:about=""><dc:format>image/svg+xml</dc:format><dc:type
         rdf:resource="http://purl.org/dc/dcmitype/StillImage" /></cc:Work></rdf:RDF></metadata><sodipodi:namedview
   pagecolor="#ffffff"
   bordercolor="#666666"
   borderopacity="1"
   objecttolerance="10"
   gridtolerance="10"
   guidetolerance="10"
   inkscape:pageopacity="0"
   inkscape:pageshadow="2"
   inkscape:window-width="640"
   inkscape:window-height="480"
   id="namedview82"
   showgrid="false"
   inkscape:zoom="1.8365233"
   inkscape:cx="37.795198"
   inkscape:cy="18.897642"
   inkscape:window-x="0"
   inkscape:window-y="0"
   inkscape:window-maximized="0"
   inkscape:current-layer="svg80" />
	<style
   type="text/css"
   id="style2">
	<![CDATA[
		.st1 {fill:#198ab3;stroke:none;stroke-linecap:butt;stroke-width:0.75}
		.st2 {fill:#32bedd;stroke:none;stroke-linecap:butt;stroke-width:0.75}
		.st3 {fill:url(#grad0-10);stroke:none;stroke-linecap:butt;stroke-width:0.75}
		.st4 {fill:#b4ec36;stroke:none;stroke-linecap:butt;stroke-width:0.75}
		.st5 {fill:none;stroke:none;stroke-linecap:butt;stroke-width:0.75}
		.st6 {fill:none;fill-rule:evenodd;font-size:12px;overflow:visible;stroke-linecap:square;stroke-miterlimit:3}
	]]>
	</style>

	<defs
   id="Patterns_And_Gradients">
		<linearGradient
   id="grad0-10"
   x1="0"
   y1="0"
   x2="1"
   y2="0"
   gradientTransform="rotate(-90,0.5,0.5)">
			<stop
   offset="0"
   stop-color="#198ab3"
   stop-opacity="1"
   id="stop4" />
			<stop
   offset="0.1"
   stop-color="#1c93bb"
   stop-opacity="1"
   id="stop6" />
			<stop
   offset="0.7"
   stop-color="#2cc2e5"
   stop-opacity="1"
   id="stop8" />
			<stop
   offset="1"
   stop-color="#32d4f5"
   stop-opacity="1"
   id="stop10" />
		</linearGradient>
	<linearGradient
   inkscape:collect="always"
   xlink:href="#grad0-10"
   id="linearGradient4594"
   gradientTransform="scale(1.896052,0.5274117)"
   x1="0"
   y1="156.80344"
   x2="25.938107"
   y2="156.80344"
   gradientUnits="userSpaceOnUse" /><linearGradient
   inkscape:collect="always"
   xlink:href="#grad0-10"
   id="linearGradient4596"
   gradientTransform="scale(1.896052,0.5274117)"
   x1="0"
   y1="156.80344"
   x2="25.938107"
   y2="156.80344"
   gradientUnits="userSpaceOnUse" /></defs>
	<g
   id="g78"
   transform="translate(-5.6693666,-5.6725768)">
		<title
   id="title14">Page-1</title>
		<g
   id="group4257-1"
   transform="translate(5.66929,-34.0157)">
			<title
   id="title16">Host Group</title>
			<g
   id="group4258-2">
				<title
   id="title18">g39</title>
				<g
   id="shape4259-3"
   transform="translate(0,-21.1215)">
					<title
   id="title20">path17</title>
					<path
   d="M 46.75,60.81 H 2.54 A 2.50495,2.27979 -180 0 0 0,63.09 v 10.32 a 2.54179,2.31331 -180 0 0 2.54,2.32 h 44.21 a 2.54179,2.31331 -180 0 0 2.54,-2.32 V 63.09 a 2.54179,2.31331 -180 0 0 -2.54,-2.28 z m 0,20.65 H 2.54 A 2.50495,2.27979 -180 0 0 0,83.74 v 10.32 a 2.54179,2.31331 -180 0 0 2.54,2.32 h 44.21 a 2.54179,2.31331 -180 0 0 2.54,-2.32 V 83.74 a 2.50495,2.27979 -180 0 0 -2.54,-2.28 z"
   class="st1"
   id="path22"
   inkscape:connector-curvature="0"
   style="fill:#198ab3;stroke:none;stroke-width:0.75;stroke-linecap:butt" />
				</g>
				<g
   id="shape4260-5"
   transform="translate(28.8806,-7.37578)">
					<title
   id="title25">path19</title>
					<rect
   x="0"
   y="61.98"
   width="3.6837499"
   height="34.3979"
   class="st2"
   id="rect27"
   style="fill:#32bedd;stroke:none;stroke-width:0.75;stroke-linecap:butt" />
				</g>
				<g
   id="shape4261-7"
   transform="translate(7.51485,-38.4211)">
					<title
   id="title30">path21</title>
					<path
   d="M 47.08,82.7 H 2.1 A 2.09974,1.911 -180 0 0 0,84.61 v 10.06 a 2.09974,1.911 -180 0 0 2.1,1.71 h 44.98 a 2.09974,1.911 -180 0 0 2.1,-1.91 V 84.41 a 2.09974,1.911 -180 0 0 -2.1,-1.71 z"
   class="st3"
   id="path32"
   inkscape:connector-curvature="0"
   style="fill:url(#linearGradient4594);stroke:none;stroke-width:0.75;stroke-linecap:butt" />
				</g>
				<g
   id="group4262-11"
   transform="translate(48.6255,-40.6003)">
					<title
   id="title35">g27</title>
					<g
   id="shape4263-12"
   transform="translate(0,-6.06825)">
						<title
   id="title37">rect23</title>
						<path
   d="m 0,95.88 a 0.552575,0.502906 -180 0 0 0.552563,0.502894 L 3.32,96.38 A 0.552575,0.502906 -180 0 0 3.872563,95.877106 L 3.87,93.36 A 0.552575,0.502906 -180 0 0 3.317437,92.857106 L 0.55,92.86 a 0.552575,0.502906 -180 0 0 -0.552563,0.502894 z"
   class="st4"
   id="path39"
   inkscape:connector-curvature="0"
   style="fill:#b4ec36;stroke:none;stroke-width:0.75;stroke-linecap:butt" />
					</g>
					<g
   id="shape4264-14">
						<title
   id="title42">rect25</title>
						<path
   d="m 0,95.88 a 0.552575,0.502906 -180 0 0 0.552563,0.502894 L 3.32,96.38 A 0.552575,0.502906 -180 0 0 3.872563,95.877106 L 3.87,93.36 A 0.552575,0.502906 -180 0 0 3.317437,92.857106 L 0.55,92.86 a 0.552575,0.502906 -180 0 0 -0.552563,0.502894 z"
   class="st4"
   id="path44"
   inkscape:connector-curvature="0"
   style="fill:#b4ec36;stroke:none;stroke-width:0.75;stroke-linecap:butt" />
					</g>
				</g>
				<g
   id="shape4265-16"
   transform="translate(7.51485,-17.5678)">
					<title
   id="title48">path29</title>
					<path
   d="M 47.08,82.5 H 2.1 A 2.09974,1.911 -180 0 0 0,84.41 v 10.06 a 2.09974,1.911 -180 0 0 2.1,1.91 h 44.98 a 2.09974,1.911 -180 0 0 2.1,-1.91 V 84.41 a 2.09974,1.911 -180 0 0 -2.1,-1.91 z"
   class="st5"
   id="path50"
   inkscape:connector-curvature="0"
   style="fill:none;stroke:none;stroke-width:0.75;stroke-linecap:butt" />
				</g>
				<g
   id="shape4266-18"
   transform="translate(25.1969)">
					<title
   id="title53">circle31</title>
					<ellipse
   cx="5.5624599"
   cy="91.315498"
   rx="5.5624599"
   ry="5.06247"
   class="st5"
   id="ellipse55"
   style="fill:none;stroke:none;stroke-width:0.75;stroke-linecap:butt" />
				</g>
				<g
   id="shape4267-20"
   transform="translate(7.51485,-17.7689)">
					<title
   id="title58">path21-5</title>
					<path
   d="M 47.08,82.7 H 2.1 A 2.09974,1.911 -180 0 0 0,84.61 v 10.06 a 2.09974,1.911 -180 0 0 2.1,1.71 h 44.98 a 2.09974,1.911 -180 0 0 2.1,-1.91 V 84.41 a 2.09974,1.911 -180 0 0 -2.1,-1.71 z"
   class="st3"
   id="path60"
   inkscape:connector-curvature="0"
   style="fill:url(#linearGradient4596);stroke:none;stroke-width:0.75;stroke-linecap:butt" />
				</g>
				<g
   id="group4268-23"
   transform="translate(48.6255,-19.9481)">
					<title
   id="title63">g27-1</title>
					<g
   id="shape4269-24"
   transform="translate(0,-6.06825)">
						<title
   id="title65">rect23-9</title>
						<path
   d="m 0,95.88 a 0.552575,0.502906 -180 0 0 0.552563,0.502894 L 3.32,96.38 A 0.552575,0.502906 -180 0 0 3.872563,95.877106 L 3.87,93.36 A 0.552575,0.502906 -180 0 0 3.317437,92.857106 L 0.55,92.86 a 0.552575,0.502906 -180 0 0 -0.552563,0.502894 z"
   class="st4"
   id="path67"
   inkscape:connector-curvature="0"
   style="fill:#b4ec36;stroke:none;stroke-width:0.75;stroke-linecap:butt" />
					</g>
					<g
   id="shape4270-26">
						<title
   id="title70">rect25-4</title>
						<path
   d="m 0,95.88 a 0.552575,0.502906 -180 0 0 0.552563,0.502894 L 3.32,96.38 A 0.552575,0.502906 -180 0 0 3.872563,95.877106 L 3.87,93.36 A 0.552575,0.502906 -180 0 0 3.317437,92.857106 L 0.55,92.86 a 0.552575,0.502906 -180 0 0 -0.552563,0.502894 z"
   class="st4"
   id="path72"
   inkscape:connector-curvature="0"
   style="fill:#b4ec36;stroke:none;stroke-width:0.75;stroke-linecap:butt" />
					</g>
				</g>
			</g>
		</g>
	</g>
</svg>

<?xml version="1.0" encoding="UTF-8" standalone="no"?>
<!DOCTYPE svg PUBLIC "-//W3C//DTD SVG 1.1//EN" "http://www.w3.org/Graphics/SVG/1.1/DTD/svg11.dtd">
<!-- Generated by Microsoft Visio, SVG Export Host Group.svg Page-1 -->
<svg xmlns="http://www.w3.org/2000/svg" xmlns:xlink="http://www.w3.org/1999/xlink" xmlns:ev="http://www.w3.org/2001/xml-events"
		width="0.944882in" height="1.33858in" viewBox="0 0 68.0315 96.378" xml:space="preserve" color-interpolation-filters="sRGB"
		class="st6">
	<style type="text/css">
	<![CDATA[
		.st1 {fill:#198ab3;stroke:none;stroke-linecap:butt;stroke-width:0.75}
		.st2 {fill:#32bedd;stroke:none;stroke-linecap:butt;stroke-width:0.75}
		.st3 {fill:url(#grad0-10);stroke:none;stroke-linecap:butt;stroke-width:0.75}
		.st4 {fill:#b4ec36;stroke:none;stroke-linecap:butt;stroke-width:0.75}
		.st5 {fill:none;stroke:none;stroke-linecap:butt;stroke-width:0.75}
		.st6 {fill:none;fill-rule:evenodd;font-size:12px;overflow:visible;stroke-linecap:square;stroke-miterlimit:3}
	]]>
	</style>

	<defs id="Patterns_And_Gradients">
		<linearGradient id="grad0-10" x1="0" y1="0" x2="1" y2="0" gradientTransform="rotate(-90 0.5 0.5)">
			<stop offset="0" stop-color="#198ab3" stop-opacity="1"/>
			<stop offset="0.1" stop-color="#1c93bb" stop-opacity="1"/>
			<stop offset="0.7" stop-color="#2cc2e5" stop-opacity="1"/>
			<stop offset="1" stop-color="#32d4f5" stop-opacity="1"/>
		</linearGradient>
	</defs>
	<g>
		<title>Page-1</title>
		<g id="group4164-1" transform="translate(5.66929,-34.0157)">
			<title>Host Group</title>
			<g id="group4165-2">
				<title>g39</title>
				<g id="shape4166-3" transform="translate(2.8777E-13,-21.1215)">
					<title>path17</title>
					<path d="M46.75 60.81 L2.54 60.81 A2.50495 2.27979 -180 0 0 0 63.09 L0 73.41 A2.54179 2.31331 -180 0 0 2.54 75.73
								 L46.75 75.73 A2.54179 2.31331 -180 0 0 49.29 73.41 L49.29 63.09 A2.54179 2.31331 -180 0 0 46.75
								 60.81 ZM46.75 81.46 L2.54 81.46 A2.50495 2.27979 -180 0 0 0 83.74 L0 94.06 A2.54179 2.31331 -180
								 0 0 2.54 96.38 L46.75 96.38 A2.54179 2.31331 -180 0 0 49.29 94.06 L49.29 83.74 A2.50495 2.27979
								 -180 0 0 46.75 81.46 Z" class="st1"/>
				</g>
				<g id="shape4167-5" transform="translate(28.8806,-7.37578)">
					<title>path19</title>
					<rect x="0" y="61.98" width="3.68375" height="34.3979" class="st2"/>
				</g>
				<g id="shape4168-7" transform="translate(7.51485,-38.4211)">
					<title>path21</title>
					<path d="M47.08 82.7 L2.1 82.7 A2.09974 1.911 -180 0 0 -0 84.61 L0 94.67 A2.09974 1.911 -180 0 0 2.1 96.38 L47.08
								 96.38 A2.09974 1.911 -180 0 0 49.18 94.47 L49.18 84.41 A2.09974 1.911 -180 0 0 47.08 82.7 Z"
							class="st3"/>
				</g>
				<g id="group4169-11" transform="translate(48.6255,-40.6003)">
					<title>g27</title>
					<g id="shape4170-12" transform="translate(0,-6.06825)">
						<title>rect23</title>
						<path d="M0 95.88 a0.552575 0.502906 -180 0 0 0.552563 0.502894 L3.32 96.38 a0.552575 0.502906 -180 0 0 0.552563
									 -0.502894 L3.87 93.36 a0.552575 0.502906 -180 0 0 -0.552563 -0.502894 L0.55 92.86 a0.552575
									 0.502906 -180 0 0 -0.552563 0.502894 L0 95.88 Z" class="st4"/>
					</g>
					<g id="shape4171-14">
						<title>rect25</title>
						<path d="M0 95.88 a0.552575 0.502906 -180 0 0 0.552563 0.502894 L3.32 96.38 a0.552575 0.502906 -180 0 0 0.552563
									 -0.502894 L3.87 93.36 a0.552575 0.502906 -180 0 0 -0.552563 -0.502894 L0.55 92.86 a0.552575
									 0.502906 -180 0 0 -0.552563 0.502894 L0 95.88 Z" class="st4"/>
					</g>
				</g>
				<g id="shape4172-16" transform="translate(7.51485,-17.5678)">
					<title>path29</title>
					<path d="M47.08 82.5 L2.1 82.5 A2.09974 1.911 -180 0 0 0 84.41 L0 94.47 A2.09974 1.911 -180 0 0 2.1 96.38 L47.08
								 96.38 A2.09974 1.911 -180 0 0 49.18 94.47 L49.18 84.41 A2.09974 1.911 -180 0 0 47.08 82.5 Z"
							class="st5"/>
				</g>
				<g id="shape4173-18" transform="translate(25.1969,1.42109E-14)">
					<title>circle31</title>
					<ellipse cx="5.56246" cy="91.3155" rx="5.56246" ry="5.06247" class="st5"/>
				</g>
				<g id="shape4174-20" transform="translate(7.51485,-17.7689)">
					<title>path21-5</title>
					<path d="M47.08 82.7 L2.1 82.7 A2.09974 1.911 -180 0 0 0 84.61 L0 94.67 A2.09974 1.911 -180 0 0 2.1 96.38 L47.08
								 96.38 A2.09974 1.911 -180 0 0 49.18 94.47 L49.18 84.41 A2.09974 1.911 -180 0 0 47.08 82.7 Z"
							class="st3"/>
				</g>
				<g id="group4175-23" transform="translate(48.6255,-19.9481)">
					<title>g27-1</title>
					<g id="shape4176-24" transform="translate(0,-6.06825)">
						<title>rect23-9</title>
						<path d="M0 95.88 a0.552575 0.502906 -180 0 0 0.552563 0.502894 L3.32 96.38 a0.552575 0.502906 -180 0 0 0.552563
									 -0.502894 L3.87 93.36 a0.552575 0.502906 -180 0 0 -0.552563 -0.502894 L0.55 92.86 a0.552575
									 0.502906 -180 0 0 -0.552563 0.502894 L0 95.88 Z" class="st4"/>
					</g>
					<g id="shape4177-26">
						<title>rect25-4</title>
						<path d="M0 95.88 a0.552575 0.502906 -180 0 0 0.552563 0.502894 L3.32 96.38 a0.552575 0.502906 -180 0 0 0.552563
									 -0.502894 L3.87 93.36 a0.552575 0.502906 -180 0 0 -0.552563 -0.502894 L0.55 92.86 a0.552575
									 0.502906 -180 0 0 -0.552563 0.502894 L0 95.88 Z" class="st4"/>
					</g>
				</g>
			</g>
		</g>
	</g>
</svg>
